icons/insomnia/insomnia-original.svg

<?xml version="1.0" encoding="UTF-8"?>
<svg xmlns="http://www.w3.org/2000/svg" xmlns:xlink="http://www.w3.org/1999/xlink" width="128px" height="128px" viewBox="0 0 128 128" version="1.1">

<path style=" stroke:none;fill-rule:evenodd;fill:rgb(100%,100%,100%);fill-opacity:1;" d="M 128 64 C 128 99.347656 99.347656 128 64 128 C 28.652344 128 0 99.347656 0 64 C 0 28.652344 28.652344 0 64 0 C 99.347656 0 128 28.652344 128 64 Z M 128 64 "/>
<path style=" stroke:none;fill-rule:evenodd;fill:rgb(34.509804%,28.627451%,74.509804%);fill-opacity:1;" d="M 50.375 15.066406 C 54.710938 13.859375 59.28125 13.214844 64 13.214844 C 92.03125 13.214844 114.785156 35.96875 114.785156 64 C 114.785156 92.03125 92.03125 114.785156 64 114.785156 C 35.96875 114.785156 13.214844 92.03125 13.214844 64 C 13.214844 59.28125 13.859375 54.710938 15.066406 50.375 C 19.648438 57.03125 27.316406 61.394531 35.996094 61.394531 C 50.015625 61.394531 61.394531 50.015625 61.394531 36 C 61.394531 27.316406 57.03125 19.648438 50.375 15.066406 Z M 50.375 15.066406 "/>

</svg>

<svg xmlns="http://www.w3.org/2000/svg" viewBox="0 0 128 128"><path fill="#fff" fill-rule="evenodd" d="M128 64c0 35.348-28.652 64-64 64S0 99.348 0 64 28.652 0 64 0s64 28.652 64 64Zm0 0"/><path fill="#5849be" fill-rule="evenodd" d="M50.375 15.066A50.743 50.743 0 0 1 64 13.215c28.031 0 50.785 22.754 50.785 50.785 0 28.031-22.754 50.785-50.785 50.785-28.031 0-50.785-22.754-50.785-50.785 0-4.719.644-9.29 1.851-13.625 4.582 6.656 12.25 11.02 20.93 11.02 14.02 0 25.399-11.38 25.399-25.395 0-8.684-4.364-16.352-11.02-20.934Zm0 0"/></svg>
